app/client/src/assets/icons/blueprintjs/20px/outdated.svg

<svg xmlns="http://www.w3.org/2000/svg" width="20" height="20"><path fill-rule="evenodd" d="M10 0c5.52 0 10 4.48 10 10s-4.48 10-10 10S0 15.52 0 10c0-.55.45-1 1-1s1 .45 1 1c0 4.42 3.58 8 8 8s8-3.58 8-8-3.58-8-8-8C7.47 2 5.22 3.17 3.76 5H5c.55 0 1 .45 1 1s-.45 1-1 1H1c-.55 0-1-.45-1-1V2c0-.55.45-1 1-1s1 .45 1 1v2.05C3.82 1.6 6.71 0 10 0Zm1 16H9v-2h2v2Zm0-3H9V4h2v9Z"/></svg>

<?xml version="1.0" encoding="UTF-8"?>
<svg width="20px" height="20px" viewBox="0 0 20 20" version="1.1" xmlns="http://www.w3.org/2000/svg" xmlns:xlink="http://www.w3.org/1999/xlink">
    <!-- Generator: Sketch 49.1 (51147) - http://www.bohemiancoding.com/sketch -->
    <title>Artboard 2 Copy 3</title>
    <desc>Created with Sketch.</desc>
    <defs></defs>
    <g id="Artboard-2-Copy-3" stroke="none" stroke-width="1" fill="none" fill-rule="evenodd">
        <path d="M10,0 C15.52,0 20,4.48 20,10 C20,15.52 15.52,20 10,20 C4.48,20 0,15.52 0,10 C0,9.45 0.45,9 1,9 C1.55,9 2,9.45 2,10 C2,14.42 5.58,18 10,18 C14.42,18 18,14.42 18,10 C18,5.58 14.42,2 10,2 C7.47,2 5.22,3.17 3.76,5 L5,5 C5.55,5 6,5.45 6,6 C6,6.55 5.55,7 5,7 L1,7 C0.45,7 0,6.55 0,6 L0,2 C0,1.45 0.45,1 1,1 C1.55,1 2,1.45 2,2 L2,4.05 C3.82,1.6 6.71,0 10,0 Z M11,16 L9,16 L9,14 L11,14 L11,16 Z M11,13 L9,13 L9,4 L11,4 L11,13 Z" id="Combined-Shape" fill="#000000"></path>
    </g>
</svg>
